**harmony	**harte	**kern	**silbe	**rhyme	**timestamp	**phrase	**leadinstrument
*M4/4	*M4/4	*ICvox	*	*	*	*	*
*	*	*VRlead	*	*	*	*	*
*	*	*Hstimme	*	*	*	*	*
*D:	*D:	*D:	*	*	*	*	*
*	*	*M4/4	*	*	*	*	*
*	*	*clefG2	*	*	*	*	*
1r;	1r	r;	.	.	0	.	r
=1	=1	=1	=1	=1	=1	=1	=1
*>Letter>A	*>Letter>A	*>Letter>A	*>Letter>A	*>Letter>A	*>Letter>A	*>Letter>A	*>Letter>A
*>Label>Intro	*>Label>Intro	*>Label>Intro	*>Label>Intro	*>Label>Intro	*>Label>Intro	*>Label>Intro	*>Label>Intro
4N	N	1r	.	.	0.836	newline	piano
2.AM	A:maj	.	.	.	1.592	.	piano
=2	=2	=2	=2	=2	=2	=2	=2
2DM	D:maj/3	1r	.	.	3.86	.	piano
2FM	F:maj6	.	.	.	5.373	.	piano
=3	=3	=3	=3	=3	=3	=3	=3
2Emm	E:min7	1r	.	.	6.885	.	piano
2AM	A:maj	.	.	.	8.397	.	piano
=4	=4	=4	=4	=4	=4	=4	=4
1AM	A:maj	1r	.	.	9.91	.	piano
=5	=5	=5	=5	=5	=5	=5	=5
1AM	A:maj	1r	.	.	12.934	.	piano
=6	=6	=6	=6	=6	=6	=6	=6
*>Letter>B	*>Letter>B	*>Letter>B	*>Letter>B	*>Letter>B	*>Letter>B	*>Letter>B	*>Letter>B
*>Label>Verse	*>Label>Verse	*>Label>Verse	*>Label>Verse	*>Label>Verse	*>Label>Verse	*>Label>Verse	*>Label>Verse
*C:	*C:	*C:	*	*	*C:	*C:	*C:
2B-M	B-:maj	4r	.	.	15.959	newline	voice
.	.	16f	May-	.	.	.	.
.	.	16f	-be	.	.	.	.
.	.	16f	I'm	.	.	.	.
.	.	16d	a-	(a	.	.	.
2FM	F:maj/3	8f	-mazed	A)	17.508	.	voice
.	.	16f	at	.	.	.	.
.	.	16f	the	.	.	.	.
.	.	8g	way	.	.	.	.
.	.	8g	you	.	.	.	.
=7	=7	=7	=7	=7	=7	=7	=7
2CM	C:maj	8g	love	.	19.057	.	voice
.	.	16g	me	.	.	.	.
.	.	[16e	all	.	.	.	.
.	.	16e]	_	.	.	.	.
.	.	16e	the	.	.	.	.
.	.	[8d	time	.	.	.	.
2GM	G:maj/4	4d]	_	.	20.606	.	voice
.	.	4r	.	.	.	.	.
=8	=8	=8	=8	=8	=8	=8	=8
2B-M	B-:maj	4r	.	.	22.155	.	voice
.	.	16f	May-	.	.	.	.
.	.	16f	-be	.	.	.	.
.	.	16f	I'm	.	.	.	.
.	.	16d	a-	(a	.	.	.
2FM	F:maj/3	8f	-fraid	A)	23.704	.	voice
.	.	16f	of	.	.	.	.
.	.	16f	the	.	.	.	.
.	.	16e-	way	.	.	.	.
.	.	8d	I	.	.	.	.
.	.	[16d	love	.	.	.	.
=9	=9	=9	=9	=9	=9	=9	=9
1CM	C:maj	16d]	_	.	25.253	.	voice
.	.	8.c	you	.	.	.	.
.	.	4r	.	.	.	.	.
.	.	2r	.	.	.	.	.
=10	=10	=10	=10	=10	=10	=10	=10
2B-M	B-:maj	4r	.	.	28.352	newline	voice
.	.	16f	Maybe	.	.	.	.
.	.	16f	I'm	.	.	.	.
.	.	16f	a-	(a	.	.	.
.	.	16d	-ma-	A)	.	.	.
2FM	F:maj/3	8.f	-zed	.	29.897	.	voice
.	.	16d	the	.	.	.	.
.	.	8f	way	.	.	.	.
.	.	8a	you	.	.	.	.
=11	=11	=11	=11	=11	=11	=11	=11
2CM	C:maj	8a	pulled	.	31.442	.	voice
.	.	16g	me	.	.	.	.
.	.	[16g	out	.	.	.	.
.	.	16g]	_	.	.	.	.
.	.	16e	of	.	.	.	.
.	.	[8g	time	B	.	.	.
2GM	G:maj	4g]	_	.	32.988	.	voice
.	.	8r	.	.	.	.	.
.	.	8d	And	.	.	.	.
=12	=12	=12	=12	=12	=12	=12	=12
2B-M	B-:maj	8a	hung	.	34.533	.	voice
.	.	16g	me	.	.	.	.
.	.	[16g	on	.	.	.	.
.	.	16g]	_	.	.	.	.
.	.	16e	a	.	.	.	.
.	.	[8g	line	B	.	.	.
2FM	F:maj/3	4g]	_	.	36.079	.	voice
.	.	4r	.	.	.	.	.
=13	=13	=13	=13	=13	=13	=13	=13
2A-M	A-:maj	16f	May-	.	37.624	.	voice
.	.	16f	-be	.	.	.	.
.	.	16f	I'm	.	.	.	.
.	.	16d	a-	(a	.	.	.
.	.	8f	-mazed	A)	.	.	.
.	.	16f	at	.	.	.	.
.	.	16f	the	.	.	.	.
2E-M	E-:maj/3	16e-	way	.	39.169	.	voice
.	.	8e-	I	.	.	.	.
.	.	[16d	real-	.	.	.	.
.	.	8d]	_	.	.	.	.
.	.	16e-	-ly	.	.	.	.
.	.	[16d	need	.	.	.	.
=14	=14	=14	=14	=14	=14	=14	=14
1CM	C:maj	16d]	_	.	40.715	.	voice
.	.	8.c	you	.	.	.	.
.	.	4r	.	.	.	.	.
.	.	2r	.	.	.	.	.
=15	=15	=15	=15	=15	=15	=15	=15
*>Letter>C	*>Letter>C	*>Letter>C	*>Letter>C	*>Letter>C	*>Letter>C	*>Letter>C	*>Letter>C
*>Label>Chorus	*>Label>Chorus	*>Label>Chorus	*>Label>Chorus	*>Label>Chorus	*>Label>Chorus	*>Label>Chorus	*>Label>Chorus
*D:	*D:	*D:	*	*	*D:	*D:	*D:
2DM	D:maj	4r	.	.	43.805	newline	voice
.	.	16a	May-	.	.	.	.
.	.	16a	-be	.	.	.	.
.	.	16a	I'm	.	.	.	.
.	.	16f#	a	(a	.	.	.
2DMM	D:maj9	4a	man	C)	45.302	.	voice
.	.	16a	may-	.	.	.	.
.	.	16a	-be	.	.	.	.
.	.	16a	I'm	.	.	.	.
.	.	16a	a	.	.	.	.
=16	=16	=16	=16	=16	=16	=16	=16
2DMm	D:9	8b	lone-	.	46.798	.	voice
.	.	16a	-ly	d	.	.	.
.	.	[16b	man	C	.	.	.
.	.	16b]	_	.	.	.	.
.	.	16a	Who's	.	.	.	.
.	.	16b	in	.	.	.	.
.	.	16a	the	.	.	.	.
4DMm	D:7	16b	mid-	.	48.294	.	voice
.	.	16b	-dle	.	.	.	.
.	.	8a	of	.	.	.	.
4DMm	D:7/3	8f	some-	.	49.042	.	voice
.	.	8e	-thing	D	.	.	.
=17	=17	=17	=17	=17	=17	=17	=17
1GM	G:maj	8d	_	.	49.79	.	voice
.	.	8r	.	.	.	.	.
.	.	16B	That	.	.	.	.
.	.	16d	he	.	.	.	.
.	.	16d	does-	.	.	.	.
.	.	16B	-n't	.	.	.	.
.	.	8f	real-	.	.	.	.
.	.	16e	-ly	d	.	.	.
.	.	[16d	un-	.	.	.	.
.	.	16d]	_	.	.	.	.
.	.	16B	-der-	.	.	.	.
.	.	8f	-stand	C	.	.	.
=18	=18	=18	=18	=18	=18	=18	=18
1DM	D:maj(b9)	8f#	_	.	52.782	.	voice
.	.	8r	.	.	.	.	.
.	.	4r	.	.	.	.	.
.	.	2r	.	.	.	.	.
=19	=19	=19	=19	=19	=19	=19	=19
2DM	D:maj	4r	.	.	55.774	newline	voice
.	.	16a	May-	.	.	.	.
.	.	16a	-be	.	.	.	.
.	.	16a	I'm	.	.	.	.
.	.	16f#	a	(a	.	.	.
2DMM	D:maj9	4a	man	C)	57.302	.	voice
.	.	16a	may-	.	.	.	.
.	.	16a	-be	.	.	.	.
.	.	16a	you're	.	.	.	.
.	.	16a	the	.	.	.	.
=20	=20	=20	=20	=20	=20	=20	=20
2DMm	D:9	8b	on-	.	58.83	.	voice
.	.	16a	-ly	d	.	.	.
.	.	[16b	wo-	.	.	.	.
.	.	16b]	_	.	.	.	.
.	.	16a	-man	.	.	.	.
.	.	16b	Who	.	.	.	.
.	.	16a	could	.	.	.	.
4DMm	D:7	16ff	e-	.	60.358	.	voice
.	.	8ee	-ver	.	.	.	.
.	.	[16ee	help	.	.	.	.
4DMm	D:7/3	8ee]	_	.	61.122	.	voice
.	.	8dd	me	D	.	.	.
=21	=21	=21	=21	=21	=21	=21	=21
1GM	G:maj	4r	.	.	61.886	.	voice
.	.	16B	Ba-	.	.	.	.
.	.	16d	-by	.	.	.	.
.	.	16d	won't	.	.	.	.
.	.	16B	you	.	.	.	.
.	.	8f	help	.	.	.	.
.	.	16e	me	.	.	.	.
.	.	[16d	un-	.	.	.	.
.	.	8d]	_	.	.	.	.
.	.	16B	-der-	.	.	.	.
.	.	16d	-stand	C	.	.	.
=22	=22	=22	=22	=22	=22	=22	=22
2DM	D:maj/3	4r	.	.	64.942	.	voice
.	.	8r	.	.	.	.	.
.	.	[8dd	Oooh	.	.	.	.
2FM	F:maj6	12dd]	_	.	66.469	.	voice
.	.	12cc	_	.	.	.	.
.	.	12a	_	.	.	.	.
.	.	12g	_	.	.	.	.
.	.	12f	_	.	.	.	.
.	.	12g	_	.	.	.	.
=23	=23	=23	=23	=23	=23	=23	=23
2Emm	E:min7	8a	_	.	67.997	.	voice
.	.	8f#	_	.	.	.	.
.	.	8d	_	.	.	.	.
.	.	16A	_	.	.	.	.
.	.	16G	_	.	.	.	.
2AM	A:maj	8r	.	.	69.525	.	voice
.	.	8r	.	.	.	.	.
.	.	4r	.	.	.	.	.
=24	=24	=24	=24	=24	=24	=24	=24
*>Letter>B	*>Letter>B	*>Letter>B	*>Letter>B	*>Letter>B	*>Letter>B	*>Letter>B	*>Letter>B
*>Label>Solo	*>Label>Solo	*>Label>Solo	*>Label>Solo	*>Label>Solo	*>Label>Solo	*>Label>Solo	*>Label>Solo
*C:	*C:	*C:	*	*	*C:	*C:	*C:
2B-M	B-:maj	1r	.	.	71.053	newline	guitar
2FM	F:maj/3	.	.	.	72.559	.	guitar
=25	=25	=25	=25	=25	=25	=25	=25
2CM	C:maj	1r	.	.	74.066	.	guitar
2GM	G:maj	.	.	.	75.572	.	guitar
=26	=26	=26	=26	=26	=26	=26	=26
2B-M	B-:maj	1r	.	.	77.079	.	guitar
2FM	F:maj/3	.	.	.	78.585	.	guitar
=27	=27	=27	=27	=27	=27	=27	=27
1CM	C:maj	1r	.	.	80.091	.	guitar
=28	=28	=28	=28	=28	=28	=28	=28
2B-M	B-:maj	1r	.	.	83.104	newline	guitar
2FM	F:maj/3	.	.	.	84.623	.	guitar
=29	=29	=29	=29	=29	=29	=29	=29
2CM	C:maj	1r	.	.	86.141	.	guitar
2GM	G:maj	.	.	.	87.66	.	guitar
=30	=30	=30	=30	=30	=30	=30	=30
2B-M	B-:maj	1r	.	.	89.179	.	guitar
2FM	F:maj/3	.	.	.	90.697	.	guitar
=31	=31	=31	=31	=31	=31	=31	=31
2A-M	A-:maj	1r	.	.	92.216	.	guitar
2E-M	E-:maj/3	.	.	.	93.734	.	guitar
=32	=32	=32	=32	=32	=32	=32	=32
1CM	C:maj	1r	.	.	95.253	.	guitar
=33	=33	=33	=33	=33	=33	=33	=33
*>Letter>C	*>Letter>C	*>Letter>C	*>Letter>C	*>Letter>C	*>Letter>C	*>Letter>C	*>Letter>C
*>Label>Chorus	*>Label>Chorus	*>Label>Chorus	*>Label>Chorus	*>Label>Chorus	*>Label>Chorus	*>Label>Chorus	*>Label>Chorus
*D:	*D:	*D:	*	*	*D:	*D:	*D:
2DM	D:maj	4r	.	.	98.29	newline	voice
.	.	16a	May-	.	.	.	.
.	.	16a	-be	.	.	.	.
.	.	16a	I'm	.	.	.	.
.	.	16f#	a	(a	.	.	.
2DMM	D:maj9	4a	man	C)	99.793	.	voice
.	.	16a	may-	.	.	.	.
.	.	16a	-be	.	.	.	.
.	.	16a	I'm	.	.	.	.
.	.	16a	a	.	.	.	.
=34	=34	=34	=34	=34	=34	=34	=34
2DMm	D:9	8b	lone-	.	101.296	.	voice
.	.	16a	-ly	d	.	.	.
.	.	[16b	man	.	.	.	.
.	.	16b]	_	.	.	.	.
.	.	16a	Who's	.	.	.	.
.	.	16b	in	.	.	.	.
.	.	16a	the	.	.	.	.
4DMm	D:7	16b	mid-	.	102.798	.	voice
.	.	16b	-dle	.	.	.	.
.	.	8a	of	.	.	.	.
4DMm	D:7/3	8f	some-	.	103.55	.	voice
.	.	8e	-thing	D	.	.	.
=35	=35	=35	=35	=35	=35	=35	=35
1GM	G:maj	8d	_	.	104.301	.	voice
.	.	8r	.	.	.	.	.
.	.	16B	That	.	.	.	.
.	.	16d	he	.	.	.	.
.	.	16d	does-	.	.	.	.
.	.	16B	-n't	.	.	.	.
.	.	8f	real-	.	.	.	.
.	.	16e	-ly	.	.	.	.
.	.	[16d	un-	.	.	.	.
.	.	16d]	_	.	.	.	.
.	.	16B	-der-	.	.	.	.
.	.	8f	-stand	C	.	.	.
=36	=36	=36	=36	=36	=36	=36	=36
1DM	D:maj(b9)	8f#	_	.	107.307	.	voice
.	.	8r	.	.	.	.	.
.	.	4r	.	.	.	.	.
.	.	2r	.	.	.	.	.
=37	=37	=37	=37	=37	=37	=37	=37
2DM	D:maj	4r	.	.	110.312	newline	voice
.	.	16a	May-	.	.	.	.
.	.	16a	-be	.	.	.	.
.	.	16a	I'm	.	.	.	.
.	.	16f#	a	(a	.	.	.
2DMM	D:maj9	4a	man	C)	111.834	.	voice
.	.	16a	may-	.	.	.	.
.	.	16a	-be	.	.	.	.
.	.	16a	you're	.	.	.	.
.	.	16a	the	.	.	.	.
=38	=38	=38	=38	=38	=38	=38	=38
2DMm	D:9	8b	on-	.	113.355	.	voice
.	.	16a	-ly	d	.	.	.
.	.	[16b	wo-	.	.	.	.
.	.	16b]	_	.	.	.	.
.	.	16a	-man	.	.	.	.
.	.	16b	Who	.	.	.	.
.	.	16a	could	.	.	.	.
4DMm	D:7	16ff	e-	.	114.877	.	voice
.	.	8ee	-ver	.	.	.	.
.	.	[16ee	help	.	.	.	.
4DMm	D:7/3	8ee]	_	.	115.637	.	voice
.	.	8dd	me	D	.	.	.
=39	=39	=39	=39	=39	=39	=39	=39
1GM	G:maj	4r	.	.	116.398	.	voice
.	.	16B	Ba-	.	.	.	.
.	.	16d	-by	.	.	.	.
.	.	16d	won't	.	.	.	.
.	.	16B	you	.	.	.	.
.	.	8f	help	.	.	.	.
.	.	16e	me	.	.	.	.
.	.	[16d	un-	.	.	.	.
.	.	8d]	_	.	.	.	.
.	.	16e	-der-	.	.	.	.
.	.	16d	-stand	C	.	.	.
=40	=40	=40	=40	=40	=40	=40	=40
2DM	D:maj/3	4r	.	.	119.441	.	voice
.	.	8r	.	.	.	.	.
.	.	[8dd	Oooh	.	.	.	.
2FM	F:maj6	12dd]	_	.	120.963	.	voice
.	.	12cc	_	.	.	.	.
.	.	12a	_	.	.	.	.
.	.	12g	_	.	.	.	.
.	.	12f	_	.	.	.	.
.	.	12g	_	.	.	.	.
=41	=41	=41	=41	=41	=41	=41	=41
2Emm	E:min7	8a	_	.	122.484	.	voice
.	.	8f#	_	.	.	.	.
.	.	8d	_	.	.	.	.
.	.	16A	_	.	.	.	.
.	.	16G	_	.	.	.	.
2AM	A:maj	8r	.	.	124.006	.	voice
.	.	8r	.	.	.	.	.
.	.	4r	.	.	.	.	.
=42	=42	=42	=42	=42	=42	=42	=42
*>Letter>B	*>Letter>B	*>Letter>B	*>Letter>B	*>Letter>B	*>Letter>B	*>Letter>B	*>Letter>B
*>Label>Verse	*>Label>Verse	*>Label>Verse	*>Label>Verse	*>Label>Verse	*>Label>Verse	*>Label>Verse	*>Label>Verse
*C:	*C:	*C:	*	*	*C:	*C:	*C:
2B-M	B-:maj	4r	.	.	125.527	newline	voice
.	.	16f	May-	.	.	.	.
.	.	16f	-be	.	.	.	.
.	.	16f	I'm	.	.	.	.
.	.	16d	a-	(a	.	.	.
2FM	F:maj/3	8.f	-mazed	A)	127.025	.	voice
.	.	16f	the	.	.	.	.
.	.	8g	way	.	.	.	.
.	.	8g	you're	.	.	.	.
=43	=43	=43	=43	=43	=43	=43	=43
2CM	C:maj	8g	with	.	128.522	.	voice
.	.	16g	me	.	.	.	.
.	.	[16e	all	.	.	.	.
.	.	16e]	_	.	.	.	.
.	.	16e	the	.	.	.	.
.	.	[8d	time	.	.	.	.
2GM	G:maj	4d]	_	.	130.02	.	voice
.	.	4r	.	.	.	.	.
=44	=44	=44	=44	=44	=44	=44	=44
2B-M	B-:maj	4r	.	.	131.518	.	voice
.	.	16f	May-	.	.	.	.
.	.	16f	-be	.	.	.	.
.	.	16f	I'm	.	.	.	.
.	.	16d	a-	(a	.	.	.
2FM	F:maj/3	8f	-fraid	A)	133.016	.	voice
.	.	16f	of	.	.	.	.
.	.	16f	the	.	.	.	.
.	.	16e-	way	.	.	.	.
.	.	8d	I	.	.	.	.
.	.	[16d	leave	.	.	.	.
=45	=45	=45	=45	=45	=45	=45	=45
1CM	C:maj	16d]	_	.	134.513	.	voice
.	.	8.c	you	.	.	.	.
.	.	4r	.	.	.	.	.
.	.	2r	.	.	.	.	.
=46	=46	=46	=46	=46	=46	=46	=46
2B-M	B-:maj	4r	.	.	137.509	newline	voice
.	.	16f	May-	.	.	.	.
.	.	16f	-be	.	.	.	.
.	.	16f	I'm	.	.	.	.
.	.	16d	a-	(a	.	.	.
2FM	F:maj/3	8.f	-mazed	A)	139.032	.	voice
.	.	16d	the	.	.	.	.
.	.	8f	way	.	.	.	.
.	.	8a	you	.	.	.	.
=47	=47	=47	=47	=47	=47	=47	=47
2CM	C:maj	8a	help	.	140.555	.	voice
.	.	16g	me	d	.	.	.
.	.	[16g	sing	D	.	.	.
.	.	16g]	_	.	.	.	.
.	.	16e	my	.	.	.	.
.	.	[8g	song	E	.	.	.
2GM	G:maj	4g]	_	.	142.078	.	voice
.	.	4r	.	.	.	.	.
=48	=48	=48	=48	=48	=48	=48	=48
2B-M	B-:maj	8a	right	.	143.601	.	voice
.	.	16g	me	d	.	.	.
.	.	[16g	when	.	.	.	.
.	.	16g]	_	.	.	.	.
.	.	16e	I'm	.	.	.	.
.	.	[8g	wrong	E	.	.	.
2FM	F:maj/3	4g]	_	.	145.125	.	voice
.	.	4r	.	.	.	.	.
=49	=49	=49	=49	=49	=49	=49	=49
2A-M	A-:maj	16f	May-	.	146.648	.	voice
.	.	16f	-be	.	.	.	.
.	.	16f	I'm	.	.	.	.
.	.	16d	a-	(a	.	.	.
.	.	8f	-mazed	A)	.	.	.
.	.	16f	at	.	.	.	.
.	.	16f	the	.	.	.	.
2E-M	E-:maj/3	16e-	way	.	148.171	.	voice
.	.	8e-	I	.	.	.	.
.	.	[16d	real-	(D	.	.	.
.	.	8d]	_	.	.	.	.
.	.	16e-	-ly	d)	.	.	.
.	.	[16d	need	.	.	.	.
=50	=50	=50	=50	=50	=50	=50	=50
1CM	C:maj	16d]	_	.	149.694	.	voice
.	.	8.c	you	.	.	.	.
.	.	4r	.	.	.	.	.
.	.	2r	.	.	.	.	.
=51	=51	=51	=51	=51	=51	=51	=51
*>Letter>C	*>Letter>C	*>Letter>C	*>Letter>C	*>Letter>C	*>Letter>C	*>Letter>C	*>Letter>C
*>Label>Solo	*>Label>Solo	*>Label>Solo	*>Label>Solo	*>Label>Solo	*>Label>Solo	*>Label>Solo	*>Label>Solo
*D:	*D:	*D:	*	*	*D:	*D:	*D:
2DM	D:maj	4r	.	.	152.741	newline	organ
.	.	4a	Oh	.	.	.	.
2DMM	D:maj9	4r	.	.	154.212	.	organ
.	.	4a	Oh	.	.	.	.
=52	=52	=52	=52	=52	=52	=52	=52
1DMm	D:7	4r	.	.	155.684	.	organ
.	.	8d	Oh	.	.	.	.
.	.	[8a	_	.	.	.	.
.	.	8a]	_	.	.	.	.
.	.	8f	oh	.	.	.	.
.	.	8e	oh	.	.	.	.
.	.	8d	_	.	.	.	.
=53	=53	=53	=53	=53	=53	=53	=53
1GM	G:maj	16e	_	.	158.627	.	organ
.	.	8.d	_	.	.	.	.
.	.	4r	.	.	.	.	.
.	.	4r	.	.	.	.	.
.	.	16B	yeah	.	.	.	.
.	.	8d	_	.	.	.	.
.	.	[16f#	_	.	.	.	.
=54	=54	=54	=54	=54	=54	=54	=54
1DM	D:maj(b9)	4f#]	_	.	161.57	.	organ
.	.	4r	.	.	.	.	.
.	.	2r	.	.	.	.	.
=55	=55	=55	=55	=55	=55	=55	=55
2DM	D:maj	4r	.	.	164.513	newline	organ
.	.	4a	oh	.	.	.	.
2DMM	D:maj9	4r	.	.	165.861	.	organ
.	.	4a	oh	.	.	.	.
=56	=56	=56	=56	=56	=56	=56	=56
1DMm	D:7	4r	.	.	167.21	.	organ
.	.	4b	Oh	.	.	.	.
.	.	12g	oh	.	.	.	.
.	.	12f#	oh	.	.	.	.
.	.	12e	oh	.	.	.	.
.	.	8d	oh	.	.	.	.
.	.	8e	_	.	.	.	.
=57	=57	=57	=57	=57	=57	=57	=57
1GM	G:maj	8f#	_	.	169.906	.	organ
.	.	8g	_	.	.	.	.
.	.	8b	_	.	.	.	.
.	.	8r	.	.	.	.	.
.	.	8r	.	.	.	.	.
.	.	[8e	yeah	.	.	.	.
.	.	8e]	_	.	.	.	.
.	.	16d	_	.	.	.	.
.	.	16e	_	.	.	.	.
=58	=58	=58	=58	=58	=58	=58	=58
2DM	D:maj/3	8d	_	.	172.603	.	organ
.	.	[4.dd	_	.	.	.	.
2FM	F:maj6	12dd]	_	.	173.952	.	organ
.	.	12cc	Oooh	.	.	.	.
.	.	12a	_	.	.	.	.
.	.	12g	_	.	.	.	.
.	.	12f	_	.	.	.	.
.	.	12g	_	.	.	.	.
=59	=59	=59	=59	=59	=59	=59	=59
2Emm	E:min7	8a	_	.	175.3	.	organ
.	.	8f#	_	.	.	.	.
.	.	8d	_	.	.	.	.
.	.	8r	.	.	.	.	.
2AM	A:maj	2r	.	.	176.649	.	organ
=60	=60	=60	=60	=60	=60	=60	=60
1AM	A:maj	1r	.	.	177.997	.	organ
1r;	r	1r;	.	.	180.694	.	r
=61	=61	=61	=61	=61	=61	=61	=61
*>Letter>B	*>Letter>B	*>Letter>B	*>Letter>B	*>Letter>B	*>Letter>B	*>Letter>B	*>Letter>B
*>Label>Solo	*>Label>Solo	*>Label>Solo	*>Label>Solo	*>Label>Solo	*>Label>Solo	*>Label>Solo	*>Label>Solo
*C:	*C:	*C:	*	*	*C:	*C:	*C:
2B-M	B-:maj	1r	.	.	183.391	newline	guitar
2FM	F:maj/3	.	.	.	184.921	.	guitar
=62	=62	=62	=62	=62	=62	=62	=62
2CM	C:maj	1r	.	.	186.45	.	guitar
2GM	G:maj	.	.	.	187.98	.	guitar
=63	=63	=63	=63	=63	=63	=63	=63
2B-M	B-:maj	1r	.	.	189.51	.	guitar
2FM	F:maj/3	.	.	.	191.039	.	guitar
=64	=64	=64	=64	=64	=64	=64	=64
1CM	C:maj	1r	.	.	192.569	.	guitar
=65	=65	=65	=65	=65	=65	=65	=65
2B-M	B-:maj	1r	.	.	195.628	newline	guitar
2FM	F:maj/3	.	.	.	197.149	.	guitar
=66	=66	=66	=66	=66	=66	=66	=66
2CM	C:maj	1r	.	.	198.67	.	guitar
2GM	G:maj	.	.	.	200.191	.	guitar
=67	=67	=67	=67	=67	=67	=67	=67
2B-M	B-:maj	1r	.	.	201.712	.	guitar
2FM	F:maj/3	.	.	.	203.233	.	guitar
=68	=68	=68	=68	=68	=68	=68	=68
2A-M	A-:maj	1r	.	.	204.754	.	guitar
2E-M	E-:maj/3	.	.	.	206.274	.	guitar
=69	=69	=69	=69	=69	=69	=69	=69
1CM	C:maj	1r	.	.	207.795	.	guitar
=70	=70	=70	=70	=70	=70	=70	=70
*>Letter>C	*>Letter>C	*>Letter>C	*>Letter>C	*>Letter>C	*>Letter>C	*>Letter>C	*>Letter>C
*>Label>Fadeout	*>Label>Fadeout	*>Label>Fadeout	*>Label>Fadeout	*>Label>Fadeout	*>Label>Fadeout	*>Label>Fadeout	*>Label>Fadeout
*D:	*D:	*D:	*	*	*D:	*D:	*D:
2DM	D:maj	1r	.	.	210.837	newline	guitar
2DMM	D:maj9	.	.	.	212.358	.	guitar
=71	=71	=71	=71	=71	=71	=71	=71
1DMm	D:7	1r	.	.	213.879	.	guitar
=72	=72	=72	=72	=72	=72	=72	=72
1GM	G:maj	1r	.	.	216.922	.	guitar
=73	=73	=73	=73	=73	=73	=73	=73
1DM	D:maj(b9)	1r	.	.	219.964	.	guitar
=74	=74	=74	=74	=74	=74	=74	=74
2DM	D:maj	1r	.	.	223.006	newline	guitar
2DMM	D:maj9	.	.	.	223.463	.	guitar
=75	=75	=75	=75	=75	=75	=75	=75
1DMm	D:7	1r	.	.	223.919	.	guitar
=76	=76	=76	=76	=76	=76	=76	=76
1GM	G:maj	1r	.	.	224.832	.	guitar
=77	=77	=77	=77	=77	=77	=77	=77
2DM	D:maj/3	1r	.	.	225.745	.	guitar
2FM	F:maj6	.	.	.	226.202	.	guitar
=78	=78	=78	=78	=78	=78	=78	=78
2Emm	E:min7	1r	.	.	226.658	.	guitar
2AM	A:maj	.	.	.	227.115	.	guitar
=79	=79	=79	=79	=79	=79	=79	=79
1AM	A:maj	1r	.	.	227.571	.	guitar
1r;	1r	r;	.	.	228.484	.	r
1r;	1r	r;	.	.	233.404	.	r
*-	*-	*-	*-	*-	*-	*-	*-
!!!BillboardChartDate: 1977/03/05
!!!BillboardPeak: 10
!!!BillboardWeeksOnChart: 13
!!!COC: Paul McCartney
!!!ENC: Nathaniel Condit-Schultz
!!!EST: Awating manual error checking and editing.
!!!OTL: Maybe I'm Amazed
!!!RDF**chordsym: original McGill chord annotation + (implied pitch class set, with bass pitch in first position)
!!!RDF**harmony: **recip + pitch class of root + harmonic quality
!!!RDF**leadinstrument: original McGill primary instrumentation annotation
!!!RDF**phrase: newline = linebreak in original McGill transcription
!!!RDF**timestamp: McGill audio timestamp in seconds
!!!RDT: 2017/01/12/
!!!SampleActualRank: 20
!!!SampleID#: 0206
!!!SampleTargetRank: 20
!!!MBID: 3f285d0c-4530-48a3-8307-425043972e77
